assets/Tomato/Flat/tomato_flat.svg

<svg width="32" height="32" viewBox="0 0 32 32" fill="none" xmlns="http://www.w3.org/2000/svg">
<path d="M15.99 5C16.5423 5 16.99 5.44772 16.99 6V10.42C16.99 10.9723 16.5423 11.42 15.99 11.42C15.4377 11.42 14.99 10.9723 14.99 10.42V6C14.99 5.44772 15.4377 5 15.99 5Z" fill="#008463"/>
<path d="M19.97 9.98999H12C6.47 9.98999 2 14.47 2 19.99C2 25.52 6.48 29.99 12 29.99H19.96C25.49 29.99 29.96 25.51 29.96 19.99C29.97 14.47 25.49 9.98999 19.97 9.98999Z" fill="#F8312F"/>
<path d="M15.4 12.66H9.63998C6.50998 12.66 3.97998 10.13 3.97998 7H9.73998C12.87 7 15.4 9.53 15.4 12.66Z" fill="#00D26A"/>
<path d="M27.97 7H22.21C19.08 7 16.55 9.53 16.55 12.66H22.31C25.44 12.66 27.97 10.13 27.97 7Z" fill="#00D26A"/>
<path d="M5.75 15.07H11.52C13.3345 15.07 14.9528 14.2143 15.9875 12.8825C17.0223 14.2143 18.6397 15.07 20.46 15.07H26.22C26.22 11.95 23.68 9.41 20.56 9.41H11.41C8.28 9.41 5.75 11.94 5.75 15.07Z" fill="#00F397"/>
</svg>

<svg xmlns="http://www.w3.org/2000/svg" width="32" height="32" fill="none"><path fill="#008463" d="M15.99 5a1 1 0 0 1 1 1v4.42a1 1 0 1 1-2 0V6a1 1 0 0 1 1-1Z"/><path fill="#F8312F" d="M19.97 9.99H12c-5.53 0-10 4.48-10 10 0 5.53 4.48 10 10 10h7.96c5.53 0 10-4.48 10-10 .01-5.52-4.47-10-9.99-10Z"/><path fill="#00D26A" d="M15.4 12.66H9.64c-3.13 0-5.66-2.53-5.66-5.66h5.76c3.13 0 5.66 2.53 5.66 5.66ZM27.97 7h-5.76c-3.13 0-5.66 2.53-5.66 5.66h5.76c3.13 0 5.66-2.53 5.66-5.66Z"/><path fill="#00F397" d="M5.75 15.07h5.77a5.646 5.646 0 0 0 4.468-2.188 5.648 5.648 0 0 0 4.472 2.188h5.76c0-3.12-2.54-5.66-5.66-5.66h-9.15c-3.13 0-5.66 2.53-5.66 5.66Z"/></svg>
